X: 36985
T: Sí Beag Sí Mór
R: waltz
M: 3/4
K: Dmajor
de|ef fe d2|d3e ed|B2 AF GA|F4 AF|
BA Bc d2|e4 de|f2 f2 e2|d4 f2|
B4 e2|A4 d2|F4 E2|D4 f2|
B4 e2|A4 dc|d2 de ed|d4 de||
ef fe d2|d3e ed|B2 AF GA|F4 AF|
BD F/G/A BG|e4 de|f2 f2 e2|d4 f2|
B4 e2|A4 d2|F2 FG FE|FE D2 fe|
fd BA ed|ec A2 AF|FG GA (3Acd|d4 de||
f2 fe de|(3fed ef a2|b2 z2 a2|f4 ed|
e2 e2 a2|f4 e2|d4 B2|B2 BA BA|
F2 FG FE|FE D2 fe|fd BA ed|ec ab fa|
ba gf ed|e2 e2 dc|d2 dA FA|d4 de||
f2 fe de|(3fed ef a2|b2 b2 a2|f4 ed|
e2 e2 a2|f4 e2|d4 B2|B2 BA BA|
F2 FG FE|FE D2 fe|fd BA ed|ec ab fa|
ba gf ed|e2 e2 dc|d2 dA FA|d4 de||
ef fe d2|d3e ed|B2 AF GA|F4 FA|
BA Bc d2|e4 de|f2 f2 e2|d4 f2|
B4 e2|A4 d2|F2 FG FE|FE D2 fe|
fd BA ed|ec A2 AF|FG GA (3Acd|d4 de|
ef fe d2|d3e ed|B2 AF GA|F4 FA|
BG GA BG|ec a4|de fa gf|gf d2 fe|
B4 e2|A4 d2|F2 FG FE|FE D2 f2|
fd BA ed|ec A2 AF|FG GA (3Acd|d4 de||
f2 fe d2|(3fed ef a2|b2 z2 a2|f4 ed|
e2 e2 a2|f4 e2|d4 B2|B2 BA BA|
F2 FG FE|FE D2 fe|fd BA ed|ec ab fa|
ba gf ed|e2 e2 dc|d2 dA FA|dA FA de||
f2 fe d2|(3fed ef a2|b2 d'2 a2|f4 ed|
e2 e2 a2|f4 e2|d4 B2|B2 BA BA|
F2 FG FE|FE D2 fe|fd BA ed|ec ab fa|
ba gf ed|e2 e2 dc|d2 dA FA|d4 d2||

